!!!!SEGMENT: pl-wnifc--6825-n_gall-jan-karol--es-ist-ein-schnitter-op-26-no-3.krn
!!!cenid: 18xx:4061
!!!COM: Gall, Jan Karol
!!!COM-rismID: pe50042628
!!!CDT: 1856-1912
!!!CNT: Polish
!!!OTL: Es ist ein Schnitter Op. 26 No. 3
!!!PDT:
!!!AGN:
!!!SMS-siglum: PL-Wnifc
!!!SMS-shelfmark: 6825/n
!!!SMS-shelfwork: W
!!!SMS-variant:
!!!SMS-altvar:
!!!NIFC-rismSourceID: 1001159664
!!!NIFC-rismChildID: 1001159664
!!!NIFC-islandoraID: nifc:213762
!!!URL-pdf-islandora: https://repozytorium.nifc.pl/islandora/object/nifc%3A213762/datastream/PDF/view
!!!URL-scan: https://polish.musicsources.pl/pl/lokalizacje/galeria/druki-muzyczne/16942-es-ist-ein-schnitter/2 @EN{Scan on Polish Music Sources Website} @PL{Skany w portalu Dziedzictwo Muzyki Polskiej w otwartym dostępie}
!!!ONB-nifc:
!!!OMD: Moderato.
!!!AIN: 1 piano 1 vox
!!!key: a
**kern	**kern	**dynam	**kern	**text	**text
*part2	*part2	*part2	*part1	*part1	*part1
*staff3	*staff2	*	*staff1	*staff1	*staff1
*I"Fortepian.	*I"Fortepian.	*	*I"Śpiew.	*	*
*Ipiano	*Ipiano	*	*Ivox	*	*
*ICklav	*ICklav	*	*ICvox	*	*
*IGacmp	*IGacmp	*	*IGsolo	*	*
*clefF4	*clefG2	*	*clefG2	*	*
*k[]	*k[]	*	*k[]	*	*
*a:	*a:	*	*a:	*	*
*M4/4	*M4/4	*	*M4/4	*	*
*met(c)	*met(c)	*	*met(c)	*	*
=1	=1	=1	=1	=1	=1
4r	4r	.	4r	.	.
4E\	4e/	.	4e/	Es	Jest
4B\	4b\	.	(4b/	ist	so-
8A\L	8a/L	.	8a/)	.	.
8B\J	8b/J	.	8b\	ein	-bie
=2	=2	=2	=2	=2	=2
4c\	4cc\	.	4cc\	Schnit-	ko-
4E\	4b 4g 4e/	.	4b\	-ter,	-siarz
4F\	4a 4f 4c/	.	4a/	der	śmierć
4D\	4b 4f 4d/	.	4b\	heisst	się
=3	=3	=3	=3	=3	=3
2E\	2g 2e 2B/	.	2g/	Tod,	zwie,
2F\	2a 2c 2A/	.	4.a/	hat	moc
.	.	.	8a/	Ge-	dał
!!LO:LB:g=original
=4	=4	=4	=4	=4	=4
*	*^	*	*	*	*
4D\	4f/	4B 4A\	.	4f/	-walt	Bóg
8E\L	8e/L	4B 4A\	.	8e/L	vom	więc
8F\J	8d/J	.	.	8d/J	.	.
4E\	4e/	4B 4A\	.	4e/	höch-	o-
4D\	4f/	4B 4A\	.	4f/	-sten	-stro
=5	=5	=5	=5	=5	=5	=5
4E\	4e 4B/	(4A\	.	4e/	Gott.	tnie.
8r	8r	8G#X\)	.	8r	.	.
(8E 8EE/	8e/	8r	.	8e/	Heut	Na-
8AA 8AAA/)	8a 8c/	2ryy	pp	4c/	wetzt	-o-
8r	8r	.	.	.	.	.
8BB 8BBB/	8a 8d/	.	.	8d/	er	-strzył
8r	8r	.	.	8d/	das	już
*	*v	*v	*	*	*	*
=6	=6	=6	=6	=6	=6
8C 8CC/	8a 8e/	.	8e/	Mes-	o-
8r	8r	.	8e/	-ser	-strze
8AA 8AAA/	8a 8c/	.	8r	.	.
8r	8r	.	8c/	es	i
8BB 8BBB/	8a 8d/	.	4d/	schneid't	cię-
8r	8r	.	.	.	.
8D 8DD/	8a 8f/	.	8f/	schon	-cie
8r	8r	.	8f/	viel	ma
!!LO:LB:g=original
=7	=7	=7	=7	=7	=7
8C 8CC/	8a 8e/	<	8e/	bes-	pro-
8r	8r	.	8e/	-ser,	-stsze,
8BB 8BBB/	8a 8d/	.	8r	.	.
8r	8r	.	8d/	bald	wnet
8C#X 8CC#X/	8a 8e/	.	4e/	wird	za-
8r	8r	.	.	.	.
8D 8DD/	8a 8f/	.	8f/	er	-cznie
8r	8r	[	8f/	drein	ko-
=8	=8	=8	=8	=8	=8
*	*^	*	*	*	*
8EL 8EE/	8a/L	8g\L	.	4g/	schnei-	-sze-
8r	8r	8ryy	.	.	.	.
8D 8DD/	8a/	8f\	.	8f/	-den	-nie
8C#XJ 8CC#X/	8a/J	8e\J	.	8e/	wir	na
8FL 8FF/	8a/L	8a\L	.	4a/	müs-	na-
8r	8r	8ryy	.	.	.	.
8E 8EE/	8a/	8g\	.	8g,/	-sen	-sze
8DJ 8DD/	8a/J	8f\J	.	8f/	nur	zni-
*	*v	*v	*	*	*	*
=9	=9	=9	=9	=9	=9
1D#X 1DD#X	2cc 2a 2f/	f	(2cc\	lei-	-szcze-
.	2ff 2cc 2a\	.	2ff\)	.	.
=10	=10	=10	=10	=10	=10
*	*	*	*^	*	*
2.E 2.EE/	2.ee 2.b 2.g#X\	.	2.ee\	2.ryy	-den!	-nie!
!	!	!	!LO:N:cue	!	!	!
4r	4r	.	4B\	4rb	.	zni-
*	*	*	*v	*v	*	*
!!LO:LB:g=original
=11	=11	=11	=11	=11	=11
!	!	!LO:DY:rj	!	!	!
1D#X 1DD#X	2c 2A 2F/	pp	(2c/	lei-	-szcze-
.	2f 2c 2A/	.	2f/)	.	.
=12	=12	=12	=12	=12	=12
2.E 2.EE/	2.e 2.B 2.G#X/	.	2.e/	-den!	-nie!
4r	4r	.	4r	.	.
=13	=13	=13	=13	=13	=13
N(>8AA\L	4.a 4.e 4.c/	.	4.a/	Hü-	Strzeż
8E\	.	.	.	.	.
8A\J)	.	.	.	.	.
8r	[8c/	.	8a/	-te	się
2r	4a 4e 4c/]N)<	.	4a/	dich,	więc,
.	4r	.	4r	.	.
=14	=14	=14	=14	=14	=14
N(>8FF\L	4.a 4.f 4.c/	.	4.a/	hü-	strzeż
8C\	.	.	.	.	.
8A\J)	.	.	.	.	.
8r	[8c/	.	8a/	-te	się
2r	4a 4f 4c/]N)<	.	4a/	dich,	więc!
.	4r	.	8r	.	.
.	.	.	8a/	schön's	kwia-
=15	=15	=15	=15	=15	=15
2DD/	2b 2f 2d/	.	2b\	Blü-	-te-
2EE/	2gn 2e 2B/	.	2gn/	-me-	-czku
=16	=16	=16	=16	=16	=16
2.AA 2.AAA/	2.a 2.e 2.c/	.	2.a/	-lein!	strzeż!
4r	4r	.	4r	.	.
!!LO:PB:g=original
=17	=17	=17	=17	=17	=17
4r	4r	.	4r	.	.
4E\	4e/	.	4e/	Viel	Jak
4B\	4b\	.	(4b/	hun-	la-
8A\L	8a/L	.	8a/)	.	.
8B\J	8b/J	.	8b\	-dert-	-zur
=18	=18	=18	=18	=18	=18
4c\	4cc\	.	4cc\	-tau-	nie-
4E\	4b 4g 4e/	.	4b\	-send	-ba
4F\	4a 4f 4c/	.	4a/	un-	wio-
4D\	4b 4f 4d/	.	4b\	-ge-	-sny
=19	=19	=19	=19	=19	=19
2E\	2g 2e 2B/	.	2g/	-zählt,	kwiat
2F\	2a 2c 2A/	.	4.a/	das	tu-
.	.	.	8a/	nur	-li-
=20	=20	=20	=20	=20	=20
*	*^	*	*^	*	*
4D\	4f/	4B 4A\	.	4f/	4ryy	un-	-pa-
8E\L	8e/L	4B 4A\	.	8e/	8e\L	-ter	-ny
8F\J	8d/J	.	.	8d/	8d\J	der	.
4E\	4e/	4B 4A\	.	4e/	2ryy	Si-	bia-
4D\	4f/	4B 4A\	.	4f/	.	-chel	-łych
*	*	*	*	*v	*v	*	*
!!LO:LB:g=original
=21	=21	=21	=21	=21	=21	=21
4E\	4e 4B/	(4A\	.	4e/	fällt,	szat
8r	8r	8G#X\)	.	8r	.	.
8E 8EE/	8e/	8r	.	8e/	ihr	I
8AA 8AAA/	8a 8c/	2ryy	pp	4c/	Ro-	sre-
8r	8r	.	.	.	.	.
8BB 8BBB/	8a 8d/	.	.	8d/	-sen	-brne
8r	8r	.	.	8d/	und	stor-
*	*v	*v	*	*	*	*
=22	=22	=22	=22	=22	=22
8C 8CC/	8a 8e/	.	8e/	Li-	-czy-
8r	8r	.	8e/	-lien	-ki
8AA 8AAA/	8a 8c/	.	8r	.	.
8r	8r	.	8c/	euch	i
8BB 8BBB/	8a 8d/	.	4d/	wird	cie-
8r	8r	.	.	.	.
8D 8DD/	8a 8f/	.	8f/	er	-mne
8r	8r	.	8f/	aus-	go-
=23	=23	=23	=23	=23	=23
8C 8CC/	8a 8e/	<	8e/	-til-	-ździ-
8r	8r	.	8e/	-gen	-ki
8BB 8BBB/	8a 8d/	.	8r	.	.
8r	8r	.	16d/	auch	spa-
.	.	.	16d/	die	-da-
8C#X 8CC#X/	8a 8e/	.	(4e/	Kai-	-ją
8r	8r	.	.	.	.
8D 8DD/	8a 8f/	[	8f/)	.	.
8r	8r	.	8f/	-ser-	ku
!!LO:LB:g=original
=24	=24	=24	=24	=24	=24
*	*^	*	*	*	*
8EL 8EE/	8a/L	8g\L	<	4g/	-kro-	zie-
8r	8r	8ryy	.	.	.	.
8D 8DD/	8a/	8f\	.	8f/	-nen	-mi,
8C#XJ 8CC#X/	8a/J	8e\J	.	8e/	wird	co
8FL 8FF/	8a/L	8a\L	.	4a/	er	bę-
8r	8r	8ryy	.	.	.	.
8E 8EE/	8a/	8g\	.	8g/	nicht	-dzie
8DJ 8DD/	8a/J	8f\J	[	8f/	ver-	więc
*	*v	*v	*	*	*	*
=25	=25	=25	=25	=25	=25
1D#X 1DD#X	2cc 2a 2f/	.	(2cc\	-scho-	z_nie-
.	2ff 2cc 2a\	.	2ff\)	.	.
=26	=26	=26	=26	=26	=26
2.E 2.EE/	2.ee 2.b 2.g#X\	.	2.ee\	-nen,	-mi?
4r	4r	.	4B/	ver-	co
=27	=27	=27	=27	=27	=27
1D#X 1DD#X	2c 2A 2F/	pp	(2c/	-scho-	bę-
.	2f 2c 2A/	.	2f/)	.	.
=28	=28	=28	=28	=28	=28
2.E 2.EE/	2.e 2.B 2.G#X/	.	2.e/	-nen.	-dzie?
4r	4r	.	4r	.	.
=29	=29	=29	=29	=29	=29
N(>8AA\L	4.a 4.e 4.c/	.	4.a/	Hü-	Strzeż
8E\	.	.	.	.	.
8A\J)	.	.	.	.	.
8r	[8c/	.	8a/	-te	się
2r	4a 4e 4c/]N)<	.	4a/	dich!	więc!
.	4r	.	4r	.	.
!!LO:LB:g=original
=30	=30	=30	=30	=30	=30
N(>8FF\L	4.a 4.f 4.c/	.	4.a/	Hü-	Strzeż
8C\	.	.	.	.	.
8A\J)	.	.	.	.	.
8r	[8c/	.	8a/	-te	się
2r	4a 4f 4c/]N)<	.	4a/	dich	więc
.	4r	.	8r	.	.
.	.	.	8a/	schöns	kwia-
=31	=31	=31	=31	=31	=31
2DD/	2b 2f 2d/	.	2b\	Blü-	-te-
2EE/	2gn 2e 2B/	.	2gn/	-me-	-czku
=32	=32	=32	=32	=32	=32
2.AA 2.AAA/	2.a 2.e 2.c/	.	2.a/	-lein.	strzeż...
4r	4r	.	4r	.	.
=33||	=33||	=33||	=33||	=33||	=33||
!!!key: A
*k[f#c#g#]	*k[f#c#g#]	*	*k[f#c#g#]	*	*
2.A 2.E 2.AA;\	2.a 2.e 2.c#;/	.	2.a;/	Trotz!	Nie!
4r	4r	.	4r	.	.
=34	=34	=34	=34	=34	=34
2.AA 2.EE 2.AAA;</	2.cc# 2.a 2.e 2.c#;/	.	2.cc#;\	Trotz!	nie!
4r	4r	.	4r	.	.
=35	=35	=35	=35	=35	=35
4r	4r	.	4r	.	.
4A 4AA/	4a 4e 4c#/	.	(4a/	Tod	Ko-
4F# 4FF#/	4cc# 4a 4f#/	.	4cc#\)	.	-sia-
4C# 4CC#/	4ee 4cc# 4g#\	.	4ee\	komm	-rzu
!!LO:PB:g=original
=36	=36	=36	=36	=36	=36
4D 4DD/	4.f# 4.d 4.A/	.	4.f#/	her	chodź!
4C# 4CC#/	.	.	.	.	.
.	8a 8f# 8d/	.	8a/	ich	ja
4BB 4BBB/	4dd 4a 4f#/	.	4dd\	fürcht'	nie
4C# 4CC#/	4cc# 4a 4f#/	.	4cc#\	dich	znam
=37	=37	=37	=37	=37	=37
4D 4DD/	4b 4g# 4f#/	.	4b\	nicht,	trwóg,
4C# 4CC#/	4cc# 4g# 4e#X/	.	4cc#\	komm	spiesz
4F# 4FF#/	4a 4f# 4c#/	.	4a/	her	tu,
8r	8r	.	8r	.	.
8D 8DD/	8b 8a 8f#/	.	8b\	mit	na-
=38	=38	=38	=38	=38	=38
4A 4AA/	4cc# 4a 4e/	.	4cc#\	eil'-	-de
4F# 4FF#/	4dd#X 4cc# 4a\	.	4dd#X\	-gem	mną
(2c# (2C#\	2ee 2cc# 2g#\	>	[2ee\	Schritt	Bóg
=39	=39	=39	=39	=39	=39
4B 4BB\))	4ee 4ddn 4g#\	]	4ee\]	.	.
8r	8r	.	8r	.	.
8E 8EE/	8e/	pp	8e/	und	i
8AA 8AAA/	8a 8c#/	.	4c#/	bin	przy-
8r	8r	.	.	.	.
8BB 8BBB/	8a 8d/	.	8d/	ich	-łoż
8r	8r	.	8d/	ver-	twą
!!LO:LB:g=original
=40	=40	=40	=40	=40	=40
8C# 8CC#/	8a 8e/	.	8e/	-let-	ko-
8r	8r	.	8e/	-zet	-sę
8AA 8AAA/	8a 8c#/	.	8r	.	.
8r	8r	.	8c#/	so	a
8BB 8BBB/	8a 8d/	.	4d/	werd	ja
8r	8r	.	.	.	.
8D 8DD/	8a 8f#/	.	8f#/	ich	się
8r	8r	.	8f#/	ver-	prze-
=41	=41	=41	=41	=41	=41
8C# 8CC#/	8a 8e/	.	8e/	-se-	-nio-
8r	8r	.	8e/	-tzet	-sę
8BB 8BBB/	8a 8d/	.	8d/	in	aż
8r	8r	.	8d/	den	tam
8C# 8CC#/	8a 8e 8A/	.	4e/	himm-	w_nie-
8r	8r	.	.	.	.
8D 8DD/	8a 8f# 8A/	.	8f#/	-li-	-bios
8r	8r	.	8f#/	-schen	o-
=42	=42	=42	=42	=42	=42
8EL 8EE/	8aL 8gn 8A/	.	4gn/	Gar-	-gro-
8r	8r	.	.	.	.
8D 8DD/	8a 8f# 8A/	.	8f#/	-ten	-dy,
8C#J 8CC#/	8aJ 8e 8A/	.	8e/	den	gdzie
8F#L 8FF#/	8aL 8A/	.	4a/	all'	spie-
8r	8r	.	.	.	.
8E 8EE/	8a 8g 8A/	.	8g/	wir	-szym
8DJ 8DD/	8aJ 8f# 8A/	.	8f#/	er-	w_za-
!!LO:LB:g=original
=43	=43	=43	=43	=43	=43
2Gn 2GGn/	2b 2gn 2B/	.	(2b\	-war-	-wo-
2E 2EE/	2cc# 2b 2g 2c#/	.	2cc#\)	.	.
=44	=44	=44	=44	=44	=44
2.BB:: 2.FF#:: 2.BBB::/	2.dd:: 2.b:: 2.f#:: 2.d::/	.	2.dd\	-ten,	-dy
4r	4r	.	4b\	er-	w_za-
=45	=45	=45	=45	=45	=45
*^	*	*	*	*	*
.	(>[8qEE/	.	.	.	.	.
2c# 2G#X 2E/)	1EE]	2cc# 2g#X 2e/	.	1ee	-war-	-wo-
2B 2G# 2E 2D/	.	2b 2g# 2e 2d/	.	.	.	.
=46	=46	=46	=46	=46	=46	=46
4.A 4.E 4.C#/	4.AA\	4.a 4.e 4.c#/	.	2.a/	-ten.	-dy.
8C#\	8ryy	8c#/	.	.	.	.
8E\L	8ryy	8e/L	.	.	.	.
8A\	8ryy	8a/	.	.	.	.
8c#\	8ryy	8cc#/	.	4r	.	.
8e\J	8ryy	8ee/J	.	.	.	.
*clefG2	*	*	*	*	*	*
*v	*v	*	*	*	*	*
=47	=47	=47	=47	=47	=47
4.a: 4.e: 4.c#: 4.A:/	4.aa: 4.ee: 4.cc#: 4.a:\	.	4.a/	Freu-	Ciesz
8f# 8c# 8A/	8ff# 8cc# 8a\	.	8f#/	-e	się
2f# 2c# 2A/	2ff# 2cc# 2a\	.	4f#/	dich,	więc,
.	.	.	4r	.	.
=48	=48	=48	=48	=48	=48
4.a: 4.e: 4.c#: 4.A:/	4.aa: 4.ee: 4.cc#: 4.a:\	.	4.a/	freu-	ciesz
8f# 8c# 8A/	8ff# 8cc# 8a\	.	8f#/	-e	się
2f# 2c# 2A/	2ff# 2cc# 2a\	.	4f#/	dich	więc,
.	.	.	4r	.	.
!!LO:LB:g=original
=49	=49	=49	=49	=49	=49
*ped	*	*	*	*	*
1f#:: 1d:: 1A::	1aa:: 1ff#:: 1dd:: 1a::	.	2r	.	.
.	.	.	2a/	schön's	kwia-
*Xped	*	*	*	*	*
=50	=50	=50	=50	=50	=50
*ped	*	*	*	*	*
1g#:: 1fn:: 1d:: 1A::	1bb:: 1ffn:: 1dd:: 1b::	pp	(2b\	Blü-	-te-
.	.	.	4dd\)	.	.
*Xped	*	*	*	*	*
.	.	.	4cc#\	-me-	-czku
=51	=51	=51	=51	=51	=51
*ped	*	*	*	*	*
4.a: 4.e: 4.c#: 4.A:/	1ccc#: 1aa: 1ee: 1cc#:	.	[1cc#	-lein!	ciesz!
*clefF4	*	*	*	*	*
8E\	.	.	.	.	.
8AA'\L	.	.	.	.	.
8E'\	.	.	.	.	.
8A'\	.	.	.	.	.
8c#'\J	.	.	.	.	.
*clefG2	*	*	*	*	*
=52	=52	=52	=52	=52	=52
1ryy	8e<'</L	.	4cc#\]	.	.
.	8a<'</J	.	.	.	.
.	8cc#'\L	.	4r	.	.
.	8ee'\J	.	.	.	.
.	8aa'\L	.	2r	.	.
.	8ccc#'\	.	.	.	.
.	8eee'\	.	.	.	.
.	8aaa'\J	.	.	.	.
=53	=53	=53	=53	=53	=53
1r;	4cccc#;\	.	1r;	.	.
.	4r	.	.	.	.
*Xped	*	*	*	*	*
.	2r	.	.	.	.
==	==	==	==	==	==
*-	*-	*-	*-	*-	*-
!!!system-decoration: <vox>{(klav)}
!!!RDF**kern: > = above
!!!RDF**kern: < = below
!!!RDF**kern: N = linked
!!!ENC: Berenika Jozajtis
!!!END: 2022-08-16
!!!ENC: Andrzej Kubiczek
!!!END: 2022-09-16
!!!YEC: Copyright 2022 Narodowy Instytut Fryderyka Chopina (https://polishscores.org)
!!!YEM: License CC-BY-4.0 (https://creativecommons.org/licenses/by/4.0)
